X: 150105
T: ROSE OF LUCERNE WALTZ
R: Waltz.
%R: waltz
B: James Kerr "Merry Melodies" v.1 p.50 s.1 #5
Z: 2016 John Chambers <jc:trillian.mit.edu>
M: 3/4
L: 1/8
K: D
uA2 |\
d3efd | A4F2 | (G2E2)A2 | (F2D2)A2 |\
d3efd | A4F2 | (G2E2)A2 | D2z2 :|\
ud2 |\
c3dec | (d2f2)d2 | e3fge | (f2d2)d2 |
B3cdB | (A2d2)f2 | (fe)d2c2 | d4uA2 |\
B3cdB | (A2f2)d2 | B3cdB | (A2f2)d2 |\
B3cdB | (A2d2)f2 | (fe)d2c2 | d4 |]

%%sep 1 1 500
%%sep 1 1 500

